src/Pure/16/symbolic/actions/mail-sent-symbolic.svg

<?xml version="1.0" encoding="UTF-8" standalone="no"?>
<svg
   width="16"
   height="15.974"
   enable-background="new"
   version="1.1"
   id="svg1"
   sodipodi:docname="mail-sent-symbolic.svg"
   inkscape:version="1.4.2 (ebf0e940d0, 2025-05-08)"
   xmlns:inkscape="http://www.inkscape.org/namespaces/inkscape"
   xmlns:sodipodi="http://sodipodi.sourceforge.net/DTD/sodipodi-0.dtd"
   xmlns="http://www.w3.org/2000/svg"
   xmlns:svg="http://www.w3.org/2000/svg">
  <defs
     id="defs1">
     <style
        id="current-color-scheme"
        type="text/css">
        .ColorScheme-Text { color:#363636; }
     </style>
  </defs>
  <sodipodi:namedview
     id="namedview1"
     pagecolor="#ffffff"
     bordercolor="#000000"
     borderopacity="0.25"
     inkscape:showpageshadow="2"
     inkscape:pageopacity="0.0"
     inkscape:pagecheckerboard="0"
     inkscape:deskcolor="#d1d1d1"
     inkscape:zoom="49.768374"
     inkscape:cx="8.0070931"
     inkscape:cy="7.987"
     inkscape:window-width="1920"
     inkscape:window-height="1010"
     inkscape:window-x="0"
     inkscape:window-y="0"
     inkscape:window-maximized="1"
     inkscape:current-layer="svg1" />
  <path
     id="path1"
     style="fill:currentColor"
     class="ColorScheme-Text"
     d="M 14.357422 1.1230469 A 0.50005 0.50005 0 0 0 14.324219 1.1269531 A 0.50005 0.50005 0 0 0 14.308594 1.1269531 A 0.50005 0.50005 0 0 0 14.291016 1.1289062 A 0.50005 0.50005 0 0 0 14.257812 1.1347656 A 0.50005 0.50005 0 0 0 14.214844 1.1445312 A 0.50005 0.50005 0 0 0 14.205078 1.1484375 A 0.50005 0.50005 0 0 0 14.193359 1.1523438 A 0.50005 0.50005 0 0 0 14.164062 1.1660156 A 0.50005 0.50005 0 0 0 14.160156 1.1660156 L 1.4316406 6.8242188 A 0.50005 0.50005 0 0 0 1.4394531 7.7382812 L 6.2050781 9.78125 L 8.2480469 14.546875 A 0.50005 0.50005 0 0 0 9.1640625 14.554688 L 14.806641 1.8574219 A 0.50005 0.50005 0 0 0 14.851562 1.7304688 A 0.50005 0.50005 0 0 0 14.855469 1.7148438 A 0.50005 0.50005 0 0 0 14.859375 1.6835938 A 0.50005 0.50005 0 0 0 14.863281 1.640625 A 0.50005 0.50005 0 0 0 14.863281 1.6308594 A 0.50005 0.50005 0 0 0 14.863281 1.6152344 A 0.50005 0.50005 0 0 0 14.861328 1.5839844 A 0.50005 0.50005 0 0 0 14.861328 1.5644531 A 0.50005 0.50005 0 0 0 14.855469 1.53125 A 0.50005 0.50005 0 0 0 14.851562 1.5175781 A 0.50005 0.50005 0 0 0 14.84375 1.484375 A 0.50005 0.50005 0 0 0 14.837891 1.46875 A 0.50005 0.50005 0 0 0 14.828125 1.4375 A 0.50005 0.50005 0 0 0 14.806641 1.3925781 A 0.50005 0.50005 0 0 0 14.791016 1.3613281 A 0.50005 0.50005 0 0 0 14.78125 1.3476562 A 0.50005 0.50005 0 0 0 14.771484 1.3359375 A 0.50005 0.50005 0 0 0 14.740234 1.296875 A 0.50005 0.50005 0 0 0 14.705078 1.2597656 A 0.50005 0.50005 0 0 0 14.681641 1.2363281 A 0.50005 0.50005 0 0 0 14.632812 1.203125 A 0.50005 0.50005 0 0 0 14.621094 1.1953125 A 0.50005 0.50005 0 0 0 14.583984 1.1757812 A 0.50005 0.50005 0 0 0 14.552734 1.1601562 A 0.50005 0.50005 0 0 0 14.505859 1.1445312 A 0.50005 0.50005 0 0 0 14.488281 1.1386719 A 0.50005 0.50005 0 0 0 14.451172 1.1328125 A 0.50005 0.50005 0 0 0 14.441406 1.1289062 A 0.50005 0.50005 0 0 0 14.408203 1.1269531 A 0.50005 0.50005 0 0 0 14.357422 1.1230469 z M 12.105469 3.1738281 L 6.4726562 8.8085938 L 2.8867188 7.2714844 L 12.105469 3.1738281 z M 12.8125 3.8808594 L 8.7148438 13.099609 L 7.1796875 9.515625 L 12.8125 3.8808594 z " />
</svg>

<svg width="16" height="15.974" enable-background="new" version="1.1" xmlns="http://www.w3.org/2000/svg">
 <path d="m14.706 1.2591a0.50005 0.50005 0 0 0-0.02486-0.022097 0.50005 0.50005 0 0 0-0.04834-0.034527 0.50005 0.50005 0 0 0-0.01243-0.00691 0.50005 0.50005 0 0 0-0.03729-0.020716 0.50005 0.50005 0 0 0-0.03038-0.013811 0.50005 0.50005 0 0 0-0.04696-0.016573 0.50005 0.50005 0 0 0-0.01657-0.00552 0.50005 0.50005 0 0 0-0.03729-0.00691 0.50005 0.50005 0 0 0-0.01105-0.00276 0.50005 0.50005 0 0 0-0.03315-0.00276 0.50005 0.50005 0 0 0-0.04972-0.00276 0.50005 0.50005 0 0 0-0.03315 0.00276 0.50005 0.50005 0 0 0-0.01657 0 0.50005 0.50005 0 0 0-0.01657 0.00276 0.50005 0.50005 0 0 0-0.03314 0.00552 0.50005 0.50005 0 0 0-0.04281 0.00967 0.50005 0.50005 0 0 0-0.0097 0.00414 0.50005 0.50005 0 0 0-0.01243 0.00414 0.50005 0.50005 0 0 0-0.029 0.01243 0.50005 0.50005 0 0 0-0.0041 0.00138l-12.728 5.6569a0.50005 0.50005 0 0 0 0.00691 0.91565l4.7661 2.0426 2.0426 4.7661a0.50005 0.50005 0 0 0 0.91565 0.0069l5.643-12.698a0.50005 0.50005 0 0 0 0.04557-0.12568 0.50005 0.50005 0 0 0 0.0028-0.016573 0.50005 0.50005 0 0 0 0.0041-0.031765 0.50005 0.50005 0 0 0 0.0041-0.042813 0.50005 0.50005 0 0 0 0-0.00829 0.50005 0.50005 0 0 0 0-0.016573 0.50005 0.50005 0 0 0-0.0014-0.031764 0.50005 0.50005 0 0 0-0.0014-0.017954 0.50005 0.50005 0 0 0-0.0055-0.033146 0.50005 0.50005 0 0 0-0.0041-0.015192 0.50005 0.50005 0 0 0-0.0069-0.031765 0.50005 0.50005 0 0 0-0.0055-0.016573 0.50005 0.50005 0 0 0-0.01105-0.030384 0.50005 0.50005 0 0 0-0.02072-0.045575 0.50005 0.50005 0 0 0-0.01657-0.030383 0.50005 0.50005 0 0 0-0.0083-0.013811 0.50005 0.50005 0 0 0-0.0097-0.01243 0.50005 0.50005 0 0 0-0.03177-0.040051 0.50005 0.50005 0 0 0-0.03453-0.037289zm-2.6006 1.9155-5.6334 5.6334-3.5853-1.5357zm0.70711 0.70711-4.0976 9.2186-1.5357-3.5853z" color="#000000" color-rendering="auto" dominant-baseline="auto" enable-background="accumulate" fill="#363636" image-rendering="auto" shape-rendering="auto" solid-color="#000000" style="font-feature-settings:normal;font-variant-alternates:normal;font-variant-caps:normal;font-variant-ligatures:normal;font-variant-numeric:normal;font-variant-position:normal;isolation:auto;mix-blend-mode:normal;shape-padding:0;text-decoration-color:#000000;text-decoration-line:none;text-decoration-style:solid;text-indent:0;text-orientation:mixed;text-transform:none;white-space:normal"/>
</svg>
